src/assets/duotone/Note1.svg

<svg width="24" height="24" viewBox="0 0 24 24"  xmlns="http://www.w3.org/2000/svg">
<path opacity="0.4" d="M7.37 22H16.62C19.31 22 21.49 19.82 21.49 17.13V8.37C21.49 5.68 19.31 3.5 16.62 3.5H7.37C4.68 3.5 2.5 5.68 2.5 8.37V17.12C2.5 19.82 4.68 22 7.37 22Z" />
<path d="M8.29004 6.29C7.87004 6.29 7.54004 5.95 7.54004 5.54V2.75C7.54004 2.34 7.87004 2 8.29004 2C8.71004 2 9.04004 2.34 9.04004 2.75V5.53C9.04004 5.95 8.71004 6.29 8.29004 6.29Z" />
<path d="M15.71 6.29C15.29 6.29 14.96 5.95 14.96 5.54V2.75C14.96 2.33 15.3 2 15.71 2C16.13 2 16.46 2.34 16.46 2.75V5.53C16.46 5.95 16.13 6.29 15.71 6.29Z" />
<path d="M14.7799 13.71H7.35986C6.93986 13.71 6.60986 13.37 6.60986 12.96C6.60986 12.55 6.94986 12.21 7.35986 12.21H14.7799C15.1999 12.21 15.5299 12.55 15.5299 12.96C15.5299 13.37 15.1999 13.71 14.7799 13.71Z" />
<path d="M11.9999 17.4199H7.35986C6.93986 17.4199 6.60986 17.0799 6.60986 16.6699C6.60986 16.2499 6.94986 15.9199 7.35986 15.9199H11.9999C12.4199 15.9199 12.7499 16.2599 12.7499 16.6699C12.7499 17.0799 12.4199 17.4199 11.9999 17.4199Z" />
</svg>

<?xml version="1.0" encoding="UTF-8"?>
<svg width="24" height="24" viewBox="0 0 24 24" xmlns="http://www.w3.org/2000/svg">
 <path d="m7.37 22h9.25c2.69 0 4.87-2.18 4.87-4.87v-8.76c0-2.69-2.18-4.87-4.87-4.87h-9.25c-2.69 0-4.87 2.18-4.87 4.87v8.75c0 2.7 2.18 4.88 4.87 4.88z" opacity=".4"/>
 <path d="m8.29 6.29c-0.42 0-0.75-0.34-0.75-0.75v-2.79c0-0.41 0.33-0.75 0.75-0.75s0.75 0.34 0.75 0.75v2.78c0 0.42-0.33 0.76-0.75 0.76z"/>
 <path d="m15.71 6.29c-0.42 0-0.75-0.34-0.75-0.75v-2.79c0-0.42 0.34-0.75 0.75-0.75 0.42 0 0.75 0.34 0.75 0.75v2.78c0 0.42-0.33 0.76-0.75 0.76z"/>
 <path d="m14.78 13.71h-7.42c-0.42 0-0.75-0.34-0.75-0.75s0.34-0.75 0.75-0.75h7.42c0.42 0 0.75 0.34 0.75 0.75s-0.33 0.75-0.75 0.75z"/>
 <path d="m12 17.42h-4.64c-0.42 0-0.75-0.34-0.75-0.75 0-0.42 0.34-0.75 0.75-0.75h4.64c0.42 0 0.75 0.34 0.75 0.75s-0.33 0.75-0.75 0.75z"/>
</svg>
